X: 08109
T: SUSAN JOY'S JIG
C: Bob McQuillen 19 Mar 91
B: Bob's Note Book 8 #109
%R: jig
Z: 2021 John Chambers <jc:trillian.mit.edu>
M: 6/8
L: 1/8
K: Am	% and C
B \
| cdc BAG | AcA GED | CEC B,A,G, | A,CE GAB |\
| cdc BAG | AcA Gcd | ecA GED | EAA A2 :|
|: G \
| ceg gag | ecA GEG | ceg gag | ece dcd |\
| ege ded | cAc GED | EGA ced | cAA A2 :|
%%begintext align
%% Susan King (her
%% middle name is JOY) lives over in Gilman, NH,
%% famous in the region for its large mineral
%% deposits. You'ld think she was a pretty rare
%% gem, too, if you could watch her on the dance
%% floor. She really sparkles!
%%endtext
